!!!!SEGMENT: pl-wn--sd-xvi-qu-273--136_gomolka-mikolaj--chwalcie-pana-z-dobroci-jego-nieprzebranej.krn
!!!cenid: 15xx:341
!!!COM: Gomółka, Mikołaj
!!!COM-rismid: pe30013343
!!!CDT: ~1535->1591/04/30
!!!CNT: Polish
!!!GTL: Melodiae na psalterz polski
!!!OTL: CXXXVI. Chwalcie Pana z dobroci Jego nieprzebranej,
!!!PDT: 1580
!!!AGN: Sacred
!!!SMS-siglum: PL-Wn
!!!SMS-shelfmark: SD XVI.Qu.273
!!!SMS-shelfwork: 136 G
!!!NIFC-rismid:
!!!ONB-nifc: Melodiae na psalterz polski
**kern	**text	**kern	**text	**kern	**text	**kern	**text
*part4	*part4	*part3	*part3	*part2	*part2	*part1	*part1
*staff4	*staff4	*staff3	*staff3	*staff2	*staff2	*staff1	*staff1
*clefF4	*	*clefC3	*	*clefC3	*	*clefC1	*
*k[]	*	*k[]	*	*k[]	*	*k[]	*
*a:	*	*a:	*	*a:	*	*a:	*
*M4/2	*	*M4/2	*	*M4/2	*	*M4/2	*
*met(C|)	*	*met(C|)	*	*met(C|)	*	*met(C|)	*
=-	=-	=-	=-	=-	=-	=-	=-
*>A	*	*	*	*	*	*	*
1AA	Chwal-	1A	Chwal-	1e	Chwal-	1a	Chwal-
2AA	-ćie	2A	-ćie	2.e	-ćie	2cc	-ćie
2E	pá-	2G	pá-	.	.	2b	pá-
.	.	.	.	4d	pá-	.	.
=3-	=3-	=3-	=3-	=3-	=3-	=3-	=3-
2AA	-ná	4A	-ná	4c	-ná	2a	-ná
.	.	4B	.	4d	.	.	.
2A	ӡ_dob-	4c	ӡ_dob-	2e	ӡ_dob-	2a	ӡ_dob-
.	.	4d	.	.	.	.	.
2.c	-ro-	2.e	-ro-	1e	-ro_ći	2g/	-ro-
.	.	.	.	.	.	2g/	-ći
4B	-ći	4d	-ći	.	.	.	.
=4-	=4-	=4-	=4-	=4-	=4-	=4-	=4-
2A	ie-	2c/	ie-	2.e	ie-	2a	ie-
2G#X	-go	2B	-go	.	.	2b	-go
.	.	.	.	4d	-go	.	.
2.A	nie-	2A	nie-	4c	nie-	2.cc	nie-
.	.	.	.	4d	.	.	.
.	.	1c	-prӡeb-	1e	-prӡeb-	.	.
4G#	-prӡeb-	.	.	.	.	4b	-prӡeb-
=5-	=5-	=5-	=5-	=5-	=5-	=5-	=5-
1F	-rá-	.	.	.	.	1a	-rá-
.	.	4B	-rá-	2d	-rá-	.	.
.	.	4A	.	.	.	.	.
2E	-néy/,	2B	-néy/,	2e	-néy/,	2g#X/	-néy/,
2AA	Chwal-	2A	Chwal-	2e	Chwal-	2a	Chwal-
=6-	=6-	=6-	=6-	=6-	=6-	=6-	=6-
2D/	-ćie	2A	-ćie	2d	-ćie	2f#X	-ćie
2D/	ӡ_li-	4d\	ӡ_li-	2A	ӡ_li-	2f#	ӡ_li-
.	.	4c\	.	.	.	.	.
1E	-toś-	4B/	.	2.e	-toś-	1g#X	-toś-
.	.	4A/	.	.	.	.	.
.	.	2B	-toś-	.	.	.	.
.	.	.	.	4d	.	.	.
=7-	=7-	=7-	=7-	=7-	=7-	=7-	=7-
2AA	-ći	4A	-ći	2c#X/	-ći	2a	-ći
.	.	4B	.	.	.	.	.
2A	wie-	4c	wie-	4A	wie-	2.e	wie-
.	.	4d	.	4B	.	.	.
1A	-ťom	2e	-ťom	2c#/	-ťom	.	.
.	.	.	.	.	.	4f	.
.	.	2.e	ʒ̇ad-	2c#/	ʒ̇ad-	4g	-ťom
.	.	.	.	.	.	4a	.
=8-	=8-	=8-	=8-	=8-	=8-	=8-	=8-
2G#X	ʒ̇ad-	.	.	2B	.	2b	ʒ̇ad-
.	.	4d	.	.	.	.	.
2A	-nym	2c/	-nym	2e	-nym	2cc	-nym
2D	nie-	4d	nie-	2f	nie-	4b	nie-
.	.	4c	.	.	.	4a	.
2F	-pod-	4B	-pod-	2d	-pod-	1a	-pod-
.	.	4A	.	.	.	.	.
=9-	=9-	=9-	=9-	=9-	=9-	=9-	=9-
1E	-dá-	1B	-dá-	2.e	-dá-	.	.
.	.	.	.	.	.	2g/	-dá-
.	.	.	.	4d	.	.	.
!	!	!'ogonek po lewej stronie'	!	!	!	!	!
!!LO:N:vis=00
1AA/	-néy/	1A/	-néy/	1c	-néy/	1a	-néy/
=-	=-	=-	=-	=-	=-	=-	=-
*-	*-	*-	*-	*-	*-	*-	*-
!!!RDF**kern: l = terminal long
!!!system-decoration: s1,s2,s3,s4
!!!ENC:Anna Matuszewska
!!!END:2020-02-22
!!!URL-scan: https://polona.pl/item/melodiae-ná-psalterz-polski,Nzk3MTM4ODQ/317 Scan on Polona
!!!IIIF: https://polona.pl/iiif/item/Nzk3MTM4ODQ/manifest.json
